X:1
T:Gower’s Litany, 77.76
T:John Henry Gower, 1891
T:Gower’s Litany, 77.76
T:Public Domain
C:John Henry Gower, 1891
Z:Public Domain
%%score ( 1 2 ) ( 3 4 )
L:1/8
M:4/4
K:D
V:1 treble 
V:2 treble 
V:3 bass 
V:4 bass 
V:1
 [DF]2 [DF]2 [CE]2 [DF]2 | [CA]3 [CE] [CE]4 | [CG]2 [CG]2 [=CF]2 [^CG]2 | [DB]3 [DA] (D2 E2) | %4
 [FA]2 [CA]2 [Dd]2 [Ec]2 | [^DB]2 F2 ([FA]2 [EG]2) | [DF]3 [B,D] [CF]2 [B,D]2 | [CE]4 D4 |] %8
V:2
 x8 | x8 | x8 | x4 A4 | x8 | x2 F2 x4 | x8 | x4 D4 |] %8
V:3
 [D,A,]2 [F,A,]2 [G,A,]2 [F,A,]2 | [A,,A,]3 [A,,A,] [E,A,]4 | [E,A,]2 [E,A,]2 [^D,A,]2 [E,A,]2 | %3
 [^E,^G,]3 [F,A,] ([F,A,]2 [=E,=G,]2) | [D,F,]2 [E,G,]2 [F,A,]2 [F,^A,]2 | %5
 [B,,B,]2 [^D,B,]2 (=C2 B,2) | [A,,A,]3 [B,,F,] [F,,A,]2 [B,,F,]2 | [A,,G,]4 [D,F,]4 |] %8
V:4
 x8 | x8 | x8 | x8 | x8 | x4 E,4 | x8 | x8 |] %8

